Sources/FrostedUI/Resources/Icons.xcassets/twitch12.imageset/twitch-12.svg

<svg width="12" height="12" viewBox="0 0 12 12" fill="none" xmlns="http://www.w3.org/2000/svg" data-fui-icon="true">
  <path
    d="M1.68195 1L1 2.73917V9.69499H3.49934V11H4.86383L6.22703 9.69499H8.27234L11 7.08739V1H1.68195ZM2.59051 1.86902H10.091V6.65174L8.49965 8.17368H6L4.63723 9.47694V8.17372H2.59051V1.86902ZM5.09082 6.21751H6V3.60913H5.09082V6.21751ZM7.5907 6.21751H8.49969V3.60913H7.5907V6.21751Z"
    fill="currentColor"
  />
</svg>

<svg xmlns="http://www.w3.org/2000/svg" width="12" height="12" fill="none" data-fui-icon="true" viewBox="0 0 12 12"><path fill="currentColor" d="M1.682 1 1 2.74v6.955h2.5V11h1.364l1.363-1.305h2.045L11 7.087V1zm.909.869h7.5v4.783L8.5 8.174H6L4.637 9.477V8.174H2.591zm2.5 4.349H6V3.609h-.91zm2.5 0H8.5V3.609h-.91z"/></svg>
